X:183
T:King of the Clans
Z: id:dc-reel-167
M:C
L:1/8
K:G Major
GA|B2GA Bdge|dedB AGEG|DGBG dGBG|cege dcBc|!
dGBd GdBd|gabg agef|gage dBge|dBAc BG:|!
Bd|g2fg egde|gdBG AGEG|DGBG dGBG|cege dcBd|!
[1 g2fg egde|gdBG AGEF|GABd gece|dBAc BG:|!
[2 gabg eage|dBGB AGEF|GABd gece|dBAc BG|]!

